static/assets/img/icons/theme/files/user-folder.svg

<svg height="24" viewBox="0 0 24 24" width="24" xmlns="http://www.w3.org/2000/svg"><g fill="none" fill-rule="evenodd"><path d="m0 0h24v24h-24z" opacity="0"/><g fill="#000"><path d="m3.5 21h17c.8284271 0 1.5-.6715729 1.5-1.5v-11c0-.82842712-.6715729-1.5-1.5-1.5h-10.5l-2.56066017-2.56066017c-.28130457-.28130457-.66283544-.43933983-1.06066017-.43933983h-2.87867966c-.82842712 0-1.5.67157288-1.5 1.5v14c0 .8284271.67157288 1.5 1.5 1.5z" opacity=".3"/><path d="m12 13c-1.1045695 0-2-.8954305-2-2s.8954305-2 2-2 2 .8954305 2 2-.8954305 2-2 2z" opacity=".3"/><path d="m7.00036205 18.4995035c.21533713-2.9829311 2.36736703-4.4995035 4.99038315-4.4995035 2.6599306 0 4.8453013 1.4332455 5.0080961 4.5.0064853.1221713 0 .5-.4173413.5-2.0586534 0-5.117764 0-9.1773321 0-.13932781 0-.41553554-.3380125-.40380585-.5004965z" opacity=".3"/></g></g></svg>

<svg width="24px" height="24px" viewBox="0 0 24 24" version="1.1" xmlns="http://www.w3.org/2000/svg" xmlns:xlink="http://www.w3.org/1999/xlink">
    <title>Icon For User-folder</title>
    <g stroke="none" stroke-width="1" fill="none" fill-rule="evenodd">
        <rect opacity="0" x="0" y="0" width="24" height="24"></rect>
        <path d="M3.5,21 L20.5,21 C21.3284271,21 22,20.3284271 22,19.5 L22,8.5 C22,7.67157288 21.3284271,7 20.5,7 L10,7 L7.43933983,4.43933983 C7.15803526,4.15803526 6.77650439,4 6.37867966,4 L3.5,4 C2.67157288,4 2,4.67157288 2,5.5 L2,19.5 C2,20.3284271 2.67157288,21 3.5,21 Z" fill="#000000" opacity="0.3"></path>
        <path d="M12,13 C10.8954305,13 10,12.1045695 10,11 C10,9.8954305 10.8954305,9 12,9 C13.1045695,9 14,9.8954305 14,11 C14,12.1045695 13.1045695,13 12,13 Z" fill="#000000" opacity="0.3"></path>
        <path d="M7.00036205,18.4995035 C7.21569918,15.5165724 9.36772908,14 11.9907452,14 C14.6506758,14 16.8360465,15.4332455 16.9988413,18.5 C17.0053266,18.6221713 16.9988413,19 16.5815,19 C14.5228466,19 11.463736,19 7.4041679,19 C7.26484009,19 6.98863236,18.6619875 7.00036205,18.4995035 Z" fill="#000000" opacity="0.3"></path>
    </g>
</svg>
